X:1
T:Tribulation, CM
T:Tribulation, CM
T:Patterson’s Church Music, 1813
T:Public Domain Courtesy of the Cyber Hymnal™
C:Patterson’s Church Music, 1813
Z:Public Domain
Z:Courtesy of the Cyber Hymnal™
%%score ( 1 2 ) ( 3 4 )
L:1/8
Q:1/4=115
M:3/2
K:F
V:1 treble 
V:2 treble 
V:3 bass 
V:4 bass 
V:1
 (FG) | [FA]4 (AG) | [FA]4 [Fd]2 | [Fc]4 [DA]2 | [CG]4 (FG) | [FA]4 [Af]2 | [^Ce]4 [Dd]2 | %7
 ([Ce][Ec] !fermata![DA]2) (d^c) | [Fd]4 (eg) | [Af]4 [A^c]2 | [Gd]4 [FA]2 | [EG]4 (E[EG]) | %12
 [FA]4 ([FA][EG]) | [DA]4 [^C^c]2 | [Dd]4 |] %15
V:2
 F2 | x4 ^C2 | x6 | x6 | x4 C2 | x6 | x6 | x4 A2 | x4 C2 | x6 | x6 | x4 E x | x6 | x6 | x4 |] %15
V:3
 [D,A,]2 | [D,D]4 ^C2 | [D,D]4 (A,G,) | [F,A,]4 [D,F]2 | [C,E]4 [F,F]2 | [D,D]4 [F,C]2 | %6
 (A,2 G,2) G,2 | A,([G,C] !fermata![D,D]2) [A,,F,]2 | [D,A,]4 (A,B,) | [F,C]4 [F,F]2 | %10
 [D,E]4 ([A,,^C][B,,D]) | [C,E]4 ^C2 | [D,D]4 C2 | A,4 A,2 | [D,A,]4 |] %15
V:4
 x2 | x4 (F,E,) | x4 A,2 | x6 | x6 | x6 | A,4 G,2 | A, x5 | x4 C,2 | x6 | x6 | x4 (F,E,) | %12
 x4 (F,G,) | A,4 (C,A,,) | x4 |] %15

